Numix/32/mimetypes/x-office-calendar.svg

<?xml version="1.0" encoding="UTF-8" standalone="no"?>
<svg
   xmlns:dc="http://purl.org/dc/elements/1.1/"
   xmlns:cc="http://creativecommons.org/ns#"
   xmlns:rdf="http://www.w3.org/1999/02/22-rdf-syntax-ns#"
   xmlns:svg="http://www.w3.org/2000/svg"
   xmlns="http://www.w3.org/2000/svg"
   xmlns:sodipodi="http://sodipodi.sourceforge.net/DTD/sodipodi-0.dtd"
   xmlns:inkscape="http://www.inkscape.org/namespaces/inkscape"
   width="32"
   height="32"
   viewBox="0 0 32 32"
   id="svg2"
   version="1.1"
   inkscape:version="0.91 r13725"
   sodipodi:docname="x-office-calendar.svg">
  <metadata
     id="metadata16">
    <rdf:RDF>
      <cc:Work
         rdf:about="">
        <dc:format>image/svg+xml</dc:format>
        <dc:type
           rdf:resource="http://purl.org/dc/dcmitype/StillImage" />
      </cc:Work>
    </rdf:RDF>
  </metadata>
  <defs
     id="defs14" />
  <sodipodi:namedview
     pagecolor="#ffffff"
     bordercolor="#666666"
     borderopacity="1"
     objecttolerance="10"
     gridtolerance="10"
     guidetolerance="10"
     inkscape:pageopacity="0"
     inkscape:pageshadow="2"
     inkscape:window-width="1366"
     inkscape:window-height="704"
     id="namedview12"
     showgrid="true"
     inkscape:zoom="5.9551649"
     inkscape:cx="10.840771"
     inkscape:cy="13.42398"
     inkscape:window-x="0"
     inkscape:window-y="27"
     inkscape:window-maximized="1"
     inkscape:current-layer="svg2">
    <inkscape:grid
       type="xygrid"
       id="grid4144" />
  </sodipodi:namedview>
  <path
     style="fill:#dc322f;fill-opacity:1"
     d="M 5.335888,2.97e-4 C 4.648414,3.12e-4 4,0.676788 4,1.394032 L 4,30.606268 C 4,31.282757 4.687474,32 5.335888,32 l 21.327332,0 c 0.648414,0 1.335888,-0.717243 1.335888,-1.393732 L 28,9 19,0 Z"
     id="path4-1"
     inkscape:connector-curvature="0"
     sodipodi:nodetypes="ssssssccs" />
  <path
     style="fill:#ffffff"
     d="M 10.292969,12.003906 C 10.011719,12.035156 10,12.171875 10,12.671875 L 10,15 l 12,0 0,-2.328125 c 0,-0.667969 0,-0.667969 -0.667969,-0.667969 l -10.664062,0 c -0.167969,0 -0.28125,-0.0078 -0.375,0 z M 10,16 10,23.332031 C 10,24 10,24 10.667969,24 l 10.664062,0 C 22,24 22,24 22,23.332031 L 22,16 Z m 7.867969,1 c 0.433593,0 0.820312,0.109375 1.144531,0.3125 0.328125,0.203125 0.574219,0.488281 0.75,0.875 0.175781,0.386719 0.269531,0.84375 0.269531,1.375 0,1.152343 -0.238281,2.015625 -0.726562,2.582031 C 18.813281,22.714843 18.067188,23 17.075,23 16.723438,23 16.465625,22.97266 16.282031,22.9375 l 0,-0.980469 c 0.226563,0.05859 0.460938,0.08594 0.710938,0.08594 0.417969,0 0.75,-0.07031 1.019531,-0.1875 0.269531,-0.125 0.480469,-0.304688 0.625,-0.5625 0.144531,-0.261719 0.226562,-0.628907 0.25,-1.085938 l -0.0625,0 c -0.15625,0.253906 -0.335938,0.421875 -0.542969,0.523438 -0.203125,0.101562 -0.441406,0.164062 -0.75,0.164062 -0.511719,0 -0.929687,-0.171875 -1.226562,-0.5 -0.296875,-0.328125 -0.4375,-0.769531 -0.4375,-1.351562 0,-0.628907 0.183593,-1.136719 0.539062,-1.5 C 16.770312,17.175783 17.246875,17.000002 17.867969,17 Z m -3.905188,0 1.042969,0 0,5.981781 -1.25,0 0.01953,-4.539062 -1.105469,0.9375 -0.601562,-0.75 z m 3.75675,1 c -0.171875,0.03516 -0.328125,0.117187 -0.4375,0.25 C 17.1375,18.425781 17.075,18.691406 17.075,19.023437 c 0,0.28125 0.05469,0.5 0.1875,0.664063 0.132812,0.164062 0.335938,0.25 0.605469,0.25 0.25,0 0.464843,-0.08594 0.644531,-0.25 0.179688,-0.164063 0.269531,-0.347657 0.269531,-0.5625 0,-0.316407 -0.07813,-0.59375 -0.25,-0.8125 C 18.367969,18.09375 18.149219,18 17.8875,18 c -0.06641,0 -0.109375,-0.01172 -0.167969,0 z"
     id="path10"
     inkscape:connector-curvature="0"
     sodipodi:nodetypes="csccsssccssssccscsscsccscccccssscsccccccccccssssscsc" />
  <path
     style="fill:#000000;fill-opacity:0.19599998"
     d="m 21,9 7,7 0,-7 z"
     id="path6-4"
     inkscape:connector-curvature="0"
     sodipodi:nodetypes="cccc" />
  <path
     style="fill:#ffffff;fill-opacity:0.39200003"
     d="M 19.000306,2.97e-4 27.9919,9 20.378638,9 C 19.705687,9 19.000306,8.2865104 19.000306,7.6135598 Z"
     id="path8-6"
     inkscape:connector-curvature="0"
     sodipodi:nodetypes="ccssc" />
</svg>

<svg xmlns="http://www.w3.org/2000/svg" viewBox="0 0 32 32">
 <path d="m 5.336 0 c -0.687 0 -1.336 0.676 -1.336 1.394 l 0 29.21 c 0 0.676 0.687 1.394 1.336 1.394 l 21.327 0 c 0.648 0 1.336 -0.717 1.336 -1.394 l 0.001 -21.606 -9 -9" style="fill:#dc322f;fill-opacity:1"/>
 <path d="m 10.293 12 c -0.281 0.031 -0.293 0.168 -0.293 0.668 l 0 2.328 l 12 0 0 -2.328 c 0 -0.668 0 -0.668 -0.668 -0.668 l -10.664 0 c -0.168 0 -0.281 -0.008 -0.375 0 z m -0.293 3.996 0 7.332 c 0 0.668 0 0.668 0.668 0.668 l 10.664 0 c 0.668 0 0.668 0 0.668 -0.668 l 0 -7.332 m -4.132 1 c 0.434 0 0.82 0.109 1.145 0.313 0.328 0.203 0.574 0.488 0.75 0.875 0.176 0.387 0.27 0.844 0.27 1.375 0 1.152 -0.238 2.02 -0.727 2.582 c -0.492 0.57 -1.238 0.855 -2.23 0.855 -0.352 0 -0.609 -0.027 -0.793 -0.063 l 0 -0.98 c 0.227 0.059 0.461 0.086 0.711 0.086 0.418 0 0.75 -0.07 1.02 -0.188 0.27 -0.125 0.48 -0.305 0.625 -0.563 0.145 -0.262 0.227 -0.629 0.25 -1.086 l -0.063 0 c -0.156 0.254 -0.336 0.422 -0.543 0.523 -0.203 0.102 -0.441 0.164 -0.75 0.164 -0.512 0 -0.93 -0.172 -1.227 -0.5 -0.297 -0.328 -0.438 -0.77 -0.438 -1.352 0 -0.629 0.184 -1.137 0.539 -1.5 c 0.363 -0.367 0.84 -0.543 1.461 -0.543 m -3.905 0 1.043 0 0 5.982 -1.25 0 0.02 -4.539 -1.105 0.938 -0.602 -0.75 z m 3.757 1 c -0.172 0.035 -0.328 0.117 -0.438 0.25 c -0.145 0.176 -0.207 0.441 -0.207 0.773 c 0 0.281 0.055 0.5 0.188 0.664 0.133 0.164 0.336 0.25 0.605 0.25 0.25 0 0.465 -0.086 0.645 -0.25 0.18 -0.164 0.27 -0.348 0.27 -0.563 0 -0.316 -0.078 -0.594 -0.25 -0.813 c -0.164 -0.219 -0.383 -0.313 -0.645 -0.313 c -0.066 0 -0.109 -0.012 -0.168 0 z" style="fill:#fff"/>
 <path d="m 21 9 7 7 0 -7 z" style="fill:#000;fill-opacity:0.196"/>
 <path d="m 19 0 8.992 9 -7.613 0 c -0.673 0 -1.378 -0.713 -1.378 -1.386" style="fill:#fff;fill-opacity:0.392"/>
</svg>
